images/3235288.svg

<?xml version="1.0" encoding="UTF-8"?>
<svg xmlns="http://www.w3.org/2000/svg" xmlns:xlink="http://www.w3.org/1999/xlink" width="300pt" height="300pt" viewBox="0 0 300 300" version="1.1">
<defs>
<g>
<symbol overflow="visible" id="glyph0-0">
<path style="stroke:none;" d="M 0.453125 1.59375 L 0.453125 -6.34375 L 4.953125 -6.34375 L 4.953125 1.59375 Z M 0.953125 1.09375 L 4.453125 1.09375 L 4.453125 -5.84375 L 0.953125 -5.84375 Z M 0.953125 1.09375 "/>
</symbol>
<symbol overflow="visible" id="glyph0-1">
<path style="stroke:none;" d="M 0.890625 -6.5625 L 2.078125 -6.5625 L 4.984375 -1.078125 L 4.984375 -6.5625 L 5.84375 -6.5625 L 5.84375 0 L 4.65625 0 L 1.75 -5.484375 L 1.75 0 L 0.890625 0 Z M 0.890625 -6.5625 "/>
</symbol>
<symbol overflow="visible" id="glyph0-2">
<path style="stroke:none;" d="M 3.546875 -5.953125 C 2.898438 -5.953125 2.382812 -5.710938 2 -5.234375 C 1.625 -4.753906 1.4375 -4.101562 1.4375 -3.28125 C 1.4375 -2.445312 1.625 -1.789062 2 -1.3125 C 2.382812 -0.832031 2.898438 -0.59375 3.546875 -0.59375 C 4.191406 -0.59375 4.703125 -0.832031 5.078125 -1.3125 C 5.453125 -1.789062 5.640625 -2.445312 5.640625 -3.28125 C 5.640625 -4.101562 5.453125 -4.753906 5.078125 -5.234375 C 4.703125 -5.710938 4.191406 -5.953125 3.546875 -5.953125 Z M 3.546875 -6.6875 C 4.460938 -6.6875 5.195312 -6.375 5.75 -5.75 C 6.300781 -5.132812 6.578125 -4.3125 6.578125 -3.28125 C 6.578125 -2.238281 6.300781 -1.410156 5.75 -0.796875 C 5.195312 -0.179688 4.460938 0.125 3.546875 0.125 C 2.617188 0.125 1.878906 -0.179688 1.328125 -0.796875 C 0.773438 -1.410156 0.5 -2.238281 0.5 -3.28125 C 0.5 -4.3125 0.773438 -5.132812 1.328125 -5.75 C 1.878906 -6.375 2.617188 -6.6875 3.546875 -6.6875 Z M 3.546875 -6.6875 "/>
</symbol>
<symbol overflow="visible" id="glyph0-3">
<path style="stroke:none;" d="M 0.890625 -6.5625 L 1.765625 -6.5625 L 1.765625 -3.875 L 5 -3.875 L 5 -6.5625 L 5.890625 -6.5625 L 5.890625 0 L 5 0 L 5 -3.125 L 1.765625 -3.125 L 1.765625 0 L 0.890625 0 Z M 0.890625 -6.5625 "/>
</symbol>
</g>
</defs>
<g id="surface48197">
<rect x="0" y="0" width="300" height="300" style="fill:rgb(100%,100%,100%);fill-opacity:1;stroke:none;"/>
<path style="fill:none;stroke-width:1.2;stroke-linecap:butt;stroke-linejoin:miter;stroke:rgb(0%,0%,0%);stroke-opacity:1;stroke-miterlimit:10;" d="M 264.75 187.117188 L 256.082031 183.632812 "/>
<path style="fill:none;stroke-width:1.2;stroke-linecap:butt;stroke-linejoin:miter;stroke:rgb(0%,0%,100%);stroke-opacity:1;stroke-miterlimit:10;" d="M 256.082031 183.632812 L 247.417969 180.148438 "/>
<path style="fill:none;stroke-width:1.2;stroke-linecap:butt;stroke-linejoin:miter;stroke:rgb(0%,0%,100%);stroke-opacity:1;stroke-miterlimit:10;" d="M 247.417969 180.148438 L 240.066406 185.914062 "/>
<path style="fill:none;stroke-width:1.2;stroke-linecap:butt;stroke-linejoin:miter;stroke:rgb(0%,0%,0%);stroke-opacity:1;stroke-miterlimit:10;" d="M 240.066406 185.914062 L 232.714844 191.675781 "/>
<path style="fill:none;stroke-width:1.2;stroke-linecap:butt;stroke-linejoin:miter;stroke:rgb(0%,0%,100%);stroke-opacity:1;stroke-miterlimit:10;" d="M 247.417969 180.148438 L 246.101562 170.902344 "/>
<path style="fill:none;stroke-width:1.2;stroke-linecap:butt;stroke-linejoin:miter;stroke:rgb(0%,0%,0%);stroke-opacity:1;stroke-miterlimit:10;" d="M 246.101562 170.902344 L 244.785156 161.65625 "/>
<path style=" stroke:none;fill-rule:nonzero;fill:rgb(100%,100%,100%);fill-opacity:1;" d="M 244.417969 174.648438 L 251.417969 174.648438 L 251.417969 185.648438 L 244.417969 185.648438 Z M 244.417969 174.648438 "/>
<g style="fill:rgb(0%,0%,100%);fill-opacity:1;">
  <use xlink:href="#glyph0-1" x="244.417969" y="183.311523"/>
</g>
<path style="fill:none;stroke-width:1.2;stroke-linecap:butt;stroke-linejoin:miter;stroke:rgb(0%,0%,0%);stroke-opacity:1;stroke-miterlimit:10;" d="M 246.140625 163.382812 L 253.492188 157.621094 "/>
<path style="fill:none;stroke-width:1.2;stroke-linecap:butt;stroke-linejoin:miter;stroke:rgb(100%,0%,0%);stroke-opacity:1;stroke-miterlimit:10;" d="M 253.492188 157.621094 L 260.839844 151.855469 "/>
<path style="fill:none;stroke-width:1.2;stroke-linecap:butt;stroke-linejoin:miter;stroke:rgb(0%,0%,0%);stroke-opacity:1;stroke-miterlimit:10;" d="M 243.429688 159.925781 L 250.777344 154.160156 "/>
<path style="fill:none;stroke-width:1.2;stroke-linecap:butt;stroke-linejoin:miter;stroke:rgb(100%,0%,0%);stroke-opacity:1;stroke-miterlimit:10;" d="M 250.777344 154.160156 L 258.128906 148.398438 "/>
<path style="fill:none;stroke-width:1.2;stroke-linecap:butt;stroke-linejoin:miter;stroke:rgb(0%,0%,0%);stroke-opacity:1;stroke-miterlimit:10;" d="M 244.785156 161.65625 L 227.453125 154.6875 "/>
<path style=" stroke:none;fill-rule:nonzero;fill:rgb(100%,100%,100%);fill-opacity:1;" d="M 255.484375 144.628906 L 263.484375 144.628906 L 263.484375 155.628906 L 255.484375 155.628906 Z M 255.484375 144.628906 "/>
<g style="fill:rgb(100%,0%,0%);fill-opacity:1;">
  <use xlink:href="#glyph0-2" x="255.484375" y="153.291992"/>
</g>
<path style="fill:none;stroke-width:1.2;stroke-linecap:butt;stroke-linejoin:miter;stroke:rgb(0%,0%,0%);stroke-opacity:1;stroke-miterlimit:10;" d="M 227.453125 154.6875 L 212.75 166.214844 "/>
<path style="fill:none;stroke-width:1.2;stroke-linecap:butt;stroke-linejoin:miter;stroke:rgb(0%,0%,0%);stroke-opacity:1;stroke-miterlimit:10;" d="M 223.269531 152.382812 L 211.507812 161.601562 "/>
<path style="fill:none;stroke-width:1.2;stroke-linecap:butt;stroke-linejoin:miter;stroke:rgb(0%,0%,0%);stroke-opacity:1;stroke-miterlimit:10;" d="M 224.820312 136.191406 L 227.453125 154.6875 "/>
<path style="fill:none;stroke-width:1.2;stroke-linecap:butt;stroke-linejoin:miter;stroke:rgb(0%,0%,0%);stroke-opacity:1;stroke-miterlimit:10;" d="M 212.75 166.214844 L 195.417969 159.246094 "/>
<path style="fill:none;stroke-width:1.2;stroke-linecap:butt;stroke-linejoin:miter;stroke:rgb(0%,0%,0%);stroke-opacity:1;stroke-miterlimit:10;" d="M 195.417969 159.246094 L 192.785156 140.753906 "/>
<path style="fill:none;stroke-width:1.2;stroke-linecap:butt;stroke-linejoin:miter;stroke:rgb(0%,0%,0%);stroke-opacity:1;stroke-miterlimit:10;" d="M 199.507812 156.777344 L 197.398438 141.984375 "/>
<path style="fill:none;stroke-width:1.2;stroke-linecap:butt;stroke-linejoin:miter;stroke:rgb(0%,0%,0%);stroke-opacity:1;stroke-miterlimit:10;" d="M 192.785156 140.753906 L 207.484375 129.226562 "/>
<path style="fill:none;stroke-width:1.2;stroke-linecap:butt;stroke-linejoin:miter;stroke:rgb(0%,0%,0%);stroke-opacity:1;stroke-miterlimit:10;" d="M 192.785156 140.753906 L 175.453125 133.785156 "/>
<path style="fill:none;stroke-width:1.2;stroke-linecap:butt;stroke-linejoin:miter;stroke:rgb(0%,0%,0%);stroke-opacity:1;stroke-miterlimit:10;" d="M 207.484375 129.226562 L 224.820312 136.191406 "/>
<path style="fill:none;stroke-width:1.2;stroke-linecap:butt;stroke-linejoin:miter;stroke:rgb(0%,0%,0%);stroke-opacity:1;stroke-miterlimit:10;" d="M 207.578125 134 L 221.445312 139.574219 "/>
<path style="fill:none;stroke-width:1.2;stroke-linecap:butt;stroke-linejoin:miter;stroke:rgb(0%,0%,0%);stroke-opacity:1;stroke-miterlimit:10;" d="M 175.453125 133.785156 L 174.136719 124.539062 "/>
<path style="fill:none;stroke-width:1.2;stroke-linecap:butt;stroke-linejoin:miter;stroke:rgb(0%,0%,100%);stroke-opacity:1;stroke-miterlimit:10;" d="M 174.136719 124.539062 L 172.820312 115.289062 "/>
<path style="fill:none;stroke-width:1.2;stroke-linecap:butt;stroke-linejoin:miter;stroke:rgb(0%,0%,0%);stroke-opacity:1;stroke-miterlimit:10;" d="M 170.835938 132.554688 L 169.785156 125.15625 "/>
<path style="fill:none;stroke-width:1.2;stroke-linecap:butt;stroke-linejoin:miter;stroke:rgb(0%,0%,100%);stroke-opacity:1;stroke-miterlimit:10;" d="M 169.785156 125.15625 L 168.730469 117.757812 "/>
<path style="fill:none;stroke-width:1.2;stroke-linecap:butt;stroke-linejoin:miter;stroke:rgb(0%,0%,100%);stroke-opacity:1;stroke-miterlimit:10;" d="M 160.75 145.3125 L 168.101562 139.550781 "/>
<path style="fill:none;stroke-width:1.2;stroke-linecap:butt;stroke-linejoin:miter;stroke:rgb(0%,0%,0%);stroke-opacity:1;stroke-miterlimit:10;" d="M 168.101562 139.550781 L 175.453125 133.785156 "/>
<path style="fill:none;stroke-width:1.2;stroke-linecap:butt;stroke-linejoin:miter;stroke:rgb(0%,0%,100%);stroke-opacity:1;stroke-miterlimit:10;" d="M 172.820312 115.289062 L 164.152344 111.808594 "/>
<path style="fill:none;stroke-width:1.2;stroke-linecap:butt;stroke-linejoin:miter;stroke:rgb(0%,0%,0%);stroke-opacity:1;stroke-miterlimit:10;" d="M 164.152344 111.808594 L 155.488281 108.324219 "/>
<path style=" stroke:none;fill-rule:nonzero;fill:rgb(100%,100%,100%);fill-opacity:1;" d="M 169.820312 109.789062 L 176.820312 109.789062 L 176.820312 120.789062 L 169.820312 120.789062 Z M 169.820312 109.789062 "/>
<g style="fill:rgb(0%,0%,100%);fill-opacity:1;">
  <use xlink:href="#glyph0-1" x="169.820312" y="118.452148"/>
</g>
<path style="fill:none;stroke-width:1.2;stroke-linecap:butt;stroke-linejoin:miter;stroke:rgb(0%,0%,0%);stroke-opacity:1;stroke-miterlimit:10;" d="M 155.488281 108.324219 L 140.785156 119.851562 "/>
<path style="fill:none;stroke-width:1.2;stroke-linecap:butt;stroke-linejoin:miter;stroke:rgb(0%,0%,0%);stroke-opacity:1;stroke-miterlimit:10;" d="M 156.730469 112.933594 L 144.96875 122.15625 "/>
<path style="fill:none;stroke-width:1.2;stroke-linecap:butt;stroke-linejoin:miter;stroke:rgb(0%,0%,0%);stroke-opacity:1;stroke-miterlimit:10;" d="M 140.785156 119.851562 L 143.417969 138.34375 "/>
<path style="fill:none;stroke-width:1.2;stroke-linecap:butt;stroke-linejoin:miter;stroke:rgb(0%,0%,0%);stroke-opacity:1;stroke-miterlimit:10;" d="M 143.417969 138.34375 L 152.085938 141.828125 "/>
<path style="fill:none;stroke-width:1.2;stroke-linecap:butt;stroke-linejoin:miter;stroke:rgb(0%,0%,100%);stroke-opacity:1;stroke-miterlimit:10;" d="M 152.085938 141.828125 L 160.75 145.3125 "/>
<path style="fill:none;stroke-width:1.2;stroke-linecap:butt;stroke-linejoin:miter;stroke:rgb(0%,0%,0%);stroke-opacity:1;stroke-miterlimit:10;" d="M 146.792969 134.964844 L 153.722656 137.75 "/>
<path style="fill:none;stroke-width:1.2;stroke-linecap:butt;stroke-linejoin:miter;stroke:rgb(0%,0%,100%);stroke-opacity:1;stroke-miterlimit:10;" d="M 153.722656 137.75 L 160.65625 140.539062 "/>
<path style="fill:none;stroke-width:1.2;stroke-linecap:butt;stroke-linejoin:miter;stroke:rgb(0%,0%,0%);stroke-opacity:1;stroke-miterlimit:10;" d="M 143.417969 138.34375 L 136.066406 144.109375 "/>
<path style="fill:none;stroke-width:1.2;stroke-linecap:butt;stroke-linejoin:miter;stroke:rgb(0%,0%,100%);stroke-opacity:1;stroke-miterlimit:10;" d="M 136.066406 144.109375 L 128.71875 149.871094 "/>
<path style=" stroke:none;fill-rule:nonzero;fill:rgb(100%,100%,100%);fill-opacity:1;" d="M 157.75 139.8125 L 164.75 139.8125 L 164.75 150.8125 L 157.75 150.8125 Z M 157.75 139.8125 "/>
<g style="fill:rgb(0%,0%,100%);fill-opacity:1;">
  <use xlink:href="#glyph0-1" x="157.75" y="148.475586"/>
</g>
<path style="fill:none;stroke-width:1.2;stroke-linecap:butt;stroke-linejoin:miter;stroke:rgb(0%,0%,100%);stroke-opacity:1;stroke-miterlimit:10;" d="M 128.71875 149.871094 L 120.050781 146.386719 "/>
<path style="fill:none;stroke-width:1.2;stroke-linecap:butt;stroke-linejoin:miter;stroke:rgb(0%,0%,0%);stroke-opacity:1;stroke-miterlimit:10;" d="M 120.050781 146.386719 L 111.386719 142.90625 "/>
<path style=" stroke:none;fill-rule:nonzero;fill:rgb(100%,100%,100%);fill-opacity:1;" d="M 121.71875 144.371094 L 135.71875 144.371094 L 135.71875 155.371094 L 121.71875 155.371094 Z M 121.71875 144.371094 "/>
<g style="fill:rgb(0%,0%,100%);fill-opacity:1;">
  <use xlink:href="#glyph0-1" x="121.71875" y="153.03418"/>
  <use xlink:href="#glyph0-3" x="128.696289" y="153.03418"/>
</g>
<path style="fill:none;stroke-width:1.2;stroke-linecap:butt;stroke-linejoin:miter;stroke:rgb(0%,0%,0%);stroke-opacity:1;stroke-miterlimit:10;" d="M 111.386719 142.90625 L 96.683594 154.433594 "/>
<path style="fill:none;stroke-width:1.2;stroke-linecap:butt;stroke-linejoin:miter;stroke:rgb(0%,0%,0%);stroke-opacity:1;stroke-miterlimit:10;" d="M 96.683594 154.433594 L 79.351562 147.464844 "/>
<path style="fill:none;stroke-width:1.2;stroke-linecap:butt;stroke-linejoin:miter;stroke:rgb(0%,0%,0%);stroke-opacity:1;stroke-miterlimit:10;" d="M 93.3125 157.8125 L 79.445312 152.238281 "/>
<path style="fill:none;stroke-width:1.2;stroke-linecap:butt;stroke-linejoin:miter;stroke:rgb(0%,0%,0%);stroke-opacity:1;stroke-miterlimit:10;" d="M 99.316406 172.925781 L 96.683594 154.433594 "/>
<path style="fill:none;stroke-width:1.2;stroke-linecap:butt;stroke-linejoin:miter;stroke:rgb(0%,0%,0%);stroke-opacity:1;stroke-miterlimit:10;" d="M 79.351562 147.464844 L 64.652344 158.992188 "/>
<path style="fill:none;stroke-width:1.2;stroke-linecap:butt;stroke-linejoin:miter;stroke:rgb(0%,0%,0%);stroke-opacity:1;stroke-miterlimit:10;" d="M 79.351562 147.464844 L 78.035156 138.21875 "/>
<path style="fill:none;stroke-width:1.2;stroke-linecap:butt;stroke-linejoin:miter;stroke:rgb(100%,0%,0%);stroke-opacity:1;stroke-miterlimit:10;" d="M 78.035156 138.21875 L 76.71875 128.96875 "/>
<path style="fill:none;stroke-width:1.2;stroke-linecap:butt;stroke-linejoin:miter;stroke:rgb(0%,0%,0%);stroke-opacity:1;stroke-miterlimit:10;" d="M 64.652344 158.992188 L 67.285156 177.484375 "/>
<path style="fill:none;stroke-width:1.2;stroke-linecap:butt;stroke-linejoin:miter;stroke:rgb(0%,0%,0%);stroke-opacity:1;stroke-miterlimit:10;" d="M 69.265625 160.222656 L 71.371094 175.015625 "/>
<path style="fill:none;stroke-width:1.2;stroke-linecap:butt;stroke-linejoin:miter;stroke:rgb(0%,0%,0%);stroke-opacity:1;stroke-miterlimit:10;" d="M 67.285156 177.484375 L 84.617188 184.453125 "/>
<path style="fill:none;stroke-width:1.2;stroke-linecap:butt;stroke-linejoin:miter;stroke:rgb(0%,0%,0%);stroke-opacity:1;stroke-miterlimit:10;" d="M 67.285156 177.484375 L 59.933594 183.25 "/>
<path style="fill:none;stroke-width:1.2;stroke-linecap:butt;stroke-linejoin:miter;stroke:rgb(100%,0%,0%);stroke-opacity:1;stroke-miterlimit:10;" d="M 59.933594 183.25 L 52.582031 189.011719 "/>
<path style="fill:none;stroke-width:1.2;stroke-linecap:butt;stroke-linejoin:miter;stroke:rgb(0%,0%,0%);stroke-opacity:1;stroke-miterlimit:10;" d="M 84.617188 184.453125 L 99.316406 172.925781 "/>
<path style="fill:none;stroke-width:1.2;stroke-linecap:butt;stroke-linejoin:miter;stroke:rgb(0%,0%,0%);stroke-opacity:1;stroke-miterlimit:10;" d="M 83.375 179.84375 L 95.136719 170.621094 "/>
<path style="fill:none;stroke-width:1.2;stroke-linecap:butt;stroke-linejoin:miter;stroke:rgb(100%,0%,0%);stroke-opacity:1;stroke-miterlimit:10;" d="M 52.582031 189.011719 L 43.917969 185.53125 "/>
<path style="fill:none;stroke-width:1.2;stroke-linecap:butt;stroke-linejoin:miter;stroke:rgb(0%,0%,0%);stroke-opacity:1;stroke-miterlimit:10;" d="M 43.917969 185.53125 L 35.25 182.046875 "/>
<path style=" stroke:none;fill-rule:nonzero;fill:rgb(100%,100%,100%);fill-opacity:1;" d="M 48.582031 183.511719 L 56.582031 183.511719 L 56.582031 194.511719 L 48.582031 194.511719 Z M 48.582031 183.511719 "/>
<g style="fill:rgb(100%,0%,0%);fill-opacity:1;">
  <use xlink:href="#glyph0-2" x="48.582031" y="192.174805"/>
</g>
<path style="fill:none;stroke-width:1.2;stroke-linecap:butt;stroke-linejoin:miter;stroke:rgb(100%,0%,0%);stroke-opacity:1;stroke-miterlimit:10;" d="M 76.71875 128.96875 L 68.050781 125.484375 "/>
<path style="fill:none;stroke-width:1.2;stroke-linecap:butt;stroke-linejoin:miter;stroke:rgb(0%,0%,0%);stroke-opacity:1;stroke-miterlimit:10;" d="M 68.050781 125.484375 L 59.386719 122.003906 "/>
<path style=" stroke:none;fill-rule:nonzero;fill:rgb(100%,100%,100%);fill-opacity:1;" d="M 72.71875 123.46875 L 80.71875 123.46875 L 80.71875 134.46875 L 72.71875 134.46875 Z M 72.71875 123.46875 "/>
<g style="fill:rgb(100%,0%,0%);fill-opacity:1;">
  <use xlink:href="#glyph0-2" x="72.71875" y="132.131836"/>
</g>
</g>
</svg>

<svg xmlns="http://www.w3.org/2000/svg" xmlns:xlink="http://www.w3.org/1999/xlink" width="300pt" height="300pt" viewBox="0 0 300 300"><defs><symbol overflow="visible"><path d="M.453 1.594v-7.938h4.5v7.938zm.5-.5h3.5v-6.938h-3.5zm0 0"/></symbol><symbol overflow="visible" id="a"><path d="M.89-6.563H2.08l2.906 5.485v-5.484h.86V0H4.656L1.75-5.484V0H.89zm0 0"/></symbol><symbol overflow="visible" id="b"><path d="M3.547-5.953c-.65 0-1.164.242-1.547.72-.375.48-.563 1.13-.563 1.952 0 .835.188 1.49.563 1.967.383.48.898.72 1.547.72.644 0 1.156-.24 1.53-.72.376-.476.564-1.132.564-1.968 0-.822-.187-1.474-.562-1.954-.375-.477-.887-.72-1.53-.72zm0-.734c.914 0 1.648.312 2.203.937.55.617.828 1.438.828 2.47 0 1.042-.277 1.87-.828 2.483-.555.617-1.29.922-2.203.922-.93 0-1.668-.305-2.22-.922C.774-1.41.5-2.237.5-3.28c0-1.033.273-1.853.828-2.47.55-.625 1.29-.938 2.22-.938zm0 0"/></symbol><symbol overflow="visible" id="c"><path d="M.89-6.563h.876v2.688H5v-2.688h.89V0H5v-3.125H1.766V0H.89zm0 0"/></symbol></defs><g><path fill="#fff" d="M0 0h300v300H0z"/><path d="M264.75 187.117l-8.668-3.484" stroke-width="1.2" stroke="#000" stroke-miterlimit="10" fill="none"/><path d="M256.082 183.633l-8.664-3.485M247.418 180.148l-7.352 5.766" stroke-width="1.2" stroke="#00f" stroke-miterlimit="10" fill="none"/><path d="M240.066 185.914l-7.35 5.762" stroke-width="1.2" stroke="#000" stroke-miterlimit="10" fill="none"/><path d="M247.418 180.148l-1.316-9.246" stroke-width="1.2" stroke="#00f" stroke-miterlimit="10" fill="none"/><path d="M246.102 170.902l-1.317-9.246" stroke-width="1.2" stroke="#000" stroke-miterlimit="10" fill="none"/><path d="M244.418 174.648h7v11h-7zm0 0" fill="#fff"/><use xlink:href="#a" x="244.418" y="183.312" fill="#00f"/><path d="M246.14 163.383l7.352-5.762" stroke-width="1.2" stroke="#000" stroke-miterlimit="10" fill="none"/><path d="M253.492 157.62l7.348-5.765" stroke-width="1.2" stroke="#f00" stroke-miterlimit="10" fill="none"/><path d="M243.43 159.926l7.347-5.766" stroke-width="1.2" stroke="#000" stroke-miterlimit="10" fill="none"/><path d="M250.777 154.16l7.352-5.762" stroke-width="1.2" stroke="#f00" stroke-miterlimit="10" fill="none"/><path d="M244.785 161.656l-17.332-6.97" stroke-width="1.2" stroke="#000" stroke-miterlimit="10" fill="none"/><path d="M255.484 144.63h8v11h-8zm0 0" fill="#fff"/><use xlink:href="#b" x="255.484" y="153.292" fill="#f00"/><path d="M227.453 154.688l-14.703 11.527M223.27 152.383l-11.762 9.22M224.82 136.19l2.633 18.498M212.75 166.215l-17.332-6.97M195.418 159.246l-2.633-18.492M199.508 156.777l-2.11-14.793M192.785 140.754l14.7-11.527M192.785 140.754l-17.332-6.97M207.484 129.227l17.336 6.964M207.578 134l13.867 5.574M175.453 133.785l-1.316-9.246" stroke-width="1.2" stroke="#000" stroke-miterlimit="10" fill="none"/><path d="M174.137 124.54l-1.317-9.25" stroke-width="1.2" stroke="#00f" stroke-miterlimit="10" fill="none"/><path d="M170.836 132.555l-1.05-7.4" stroke-width="1.2" stroke="#000" stroke-miterlimit="10" fill="none"/><path d="M169.785 125.156l-1.055-7.398M160.75 145.313l7.352-5.762" stroke-width="1.2" stroke="#00f" stroke-miterlimit="10" fill="none"/><path d="M168.102 139.55l7.35-5.765" stroke-width="1.2" stroke="#000" stroke-miterlimit="10" fill="none"/><path d="M172.82 115.29l-8.668-3.48" stroke-width="1.2" stroke="#00f" stroke-miterlimit="10" fill="none"/><path d="M164.152 111.81l-8.664-3.486" stroke-width="1.2" stroke="#000" stroke-miterlimit="10" fill="none"/><path d="M169.82 109.79h7v11h-7zm0 0" fill="#fff"/><use xlink:href="#a" x="169.82" y="118.452" fill="#00f"/><path d="M155.488 108.324l-14.703 11.528M156.73 112.934l-11.76 9.222M140.785 119.852l2.633 18.492M143.418 138.344l8.668 3.484" stroke-width="1.2" stroke="#000" stroke-miterlimit="10" fill="none"/><path d="M152.086 141.828l8.664 3.484" stroke-width="1.2" stroke="#00f" stroke-miterlimit="10" fill="none"/><path d="M146.793 134.965l6.93 2.785" stroke-width="1.2" stroke="#000" stroke-miterlimit="10" fill="none"/><path d="M153.723 137.75l6.933 2.79" stroke-width="1.2" stroke="#00f" stroke-miterlimit="10" fill="none"/><path d="M143.418 138.344l-7.352 5.765" stroke-width="1.2" stroke="#000" stroke-miterlimit="10" fill="none"/><path d="M136.066 144.11l-7.347 5.76" stroke-width="1.2" stroke="#00f" stroke-miterlimit="10" fill="none"/><path d="M157.75 139.813h7v11h-7zm0 0" fill="#fff"/><use xlink:href="#a" x="157.75" y="148.476" fill="#00f"/><path d="M128.72 149.87l-8.67-3.483" stroke-width="1.2" stroke="#00f" stroke-miterlimit="10" fill="none"/><path d="M120.05 146.387l-8.663-3.48" stroke-width="1.2" stroke="#000" stroke-miterlimit="10" fill="none"/><path d="M121.72 144.37h14v11h-14zm0 0" fill="#fff"/><g fill="#00f"><use xlink:href="#a" x="121.719" y="153.034"/><use xlink:href="#c" x="128.696" y="153.034"/></g><path d="M111.387 142.906l-14.703 11.528M96.684 154.434l-17.332-6.97M93.313 157.813l-13.868-5.575M99.316 172.926l-2.632-18.492M79.352 147.465l-14.7 11.527M79.352 147.465l-1.317-9.246" stroke-width="1.2" stroke="#000" stroke-miterlimit="10" fill="none"/><path d="M78.035 138.22l-1.316-9.25" stroke-width="1.2" stroke="#f00" stroke-miterlimit="10" fill="none"/><path d="M64.652 158.992l2.633 18.492M69.266 160.223l2.105 14.793M67.285 177.484l17.332 6.97M67.285 177.484l-7.35 5.766" stroke-width="1.2" stroke="#000" stroke-miterlimit="10" fill="none"/><path d="M59.934 183.25l-7.352 5.762" stroke-width="1.2" stroke="#f00" stroke-miterlimit="10" fill="none"/><path d="M84.617 184.453l14.7-11.527M83.375 179.844l11.762-9.223" stroke-width="1.2" stroke="#000" stroke-miterlimit="10" fill="none"/><path d="M52.582 189.012l-8.664-3.48" stroke-width="1.2" stroke="#f00" stroke-miterlimit="10" fill="none"/><path d="M43.918 185.53l-8.668-3.483" stroke-width="1.2" stroke="#000" stroke-miterlimit="10" fill="none"/><path d="M48.582 183.512h8v11h-8zm0 0" fill="#fff"/><use xlink:href="#b" x="48.582" y="192.175" fill="#f00"/><path d="M76.72 128.97l-8.67-3.486" stroke-width="1.2" stroke="#f00" stroke-miterlimit="10" fill="none"/><path d="M68.05 125.484l-8.663-3.48" stroke-width="1.2" stroke="#000" stroke-miterlimit="10" fill="none"/><path d="M72.72 123.47h8v11h-8zm0 0" fill="#fff"/><use xlink:href="#b" x="72.719" y="132.132" fill="#f00"/></g></svg>
